X:1
T:Babies in the Mill
M:3/4
L:1/4
K:D
 A| A2 A| F/2- E3/2 D| F2 F| F2 D| B2 B| B2 B| A3-| A z A| D2 D| D2 F|\
 A2 A| F/2- D3/2 D| E2 E| ^G2 B| A3-| A z2| d3/2 B/2 A|F/2-E/2 D2|\
 F2 D| F2 D| B/2 B/2- B2| B2 B| A3-| A z D| D2 D| D2 F| A2 A| F/2- D3/2 F/2F/2|\
 F2 E| D2 C| D3-| D z F| A2 F| A2 B/2B/2| A2 F| F z D| B2 B| B2 B|\
 A3-| A z| D| D2 D| D2 F| A2 A| F/2- D3/2 F| F E2| D2 C| D3-| D z||\
